svg/blobs-icons/no-decorations/lemon.svg

<svg xmlns="http://www.w3.org/2000/svg" xmlns:xlink="http://www.w3.org/1999/xlink" preserveAspectRatio="xMidYMid" width="146" height="218" viewBox="0 0 146 218"><defs><style>.cls-3{fill:#0cb04a}.cls-4{fill:#020403;opacity:.35}.cls-7{fill:#142a3b}.cls-8{fill:#fbb713}.cls-9{fill:#fff}.cls-10{fill:#010101;opacity:.25}</style></defs><g id="group-75svg"><path d="M43.209 82.834C54.374 89.071 74.717 73.913 74.717 73.913s2.243-25.272-8.92-31.509c-11.164-6.237-43.211 2.383-43.211 2.383s9.46 31.809 20.623 38.047z" id="path-1" class="cls-3" fill-rule="evenodd"/><path d="M65.796 42.404C60.013 39.174 48.644 39.934 39.011 41.414 37.73 44.565 36.909 47.559 36.909 50.171c0 15.379 26.431 27.963 29.019 29.158C71.019 76.656 74.717 73.913 74.717 73.913S76.96 48.641 65.796 42.404z" id="path-2" class="cls-4" fill-rule="evenodd"/><path d="M107.291 46.228c0 16.169-29.277 29.276-29.277 29.276S48.738 62.397 48.738 46.228C48.738 30.059 78.014.002 78.014.002s29.277 30.057 29.277 46.226z" id="path-3" class="cls-3" fill-rule="evenodd"/><path d="M78.014.002S76.338 1.729 73.828 4.522C82.502 14.63 95.46 31.516 95.46 42.284c0 13.351-19.919 24.59-26.877 28.113C73.805 73.615 78.014 75.504 78.014 75.504s29.277-13.108 29.277-29.276C107.291 30.059 78.014.002 78.014.002z" id="path-4" class="cls-4" fill-rule="evenodd"/><path d="M78.77 86.311C78.571 86.311 78.369 86.294 78.164 86.259 76.197 85.927 74.869 84.063 75.204 82.093 80.39 51.366 74.575 28.36 74.516 28.131 74.015 26.199 75.175 24.225 77.108 23.725 79.035 23.223 81.012 24.385 81.513 26.316 81.772 27.311 87.773 51.062 82.33 83.296 82.034 85.061 80.503 86.311 78.77 86.311z" id="path-5" class="cls-7" fill-rule="evenodd"/><path d="M145.663 144.041c0 40.228-32.612 72.84-72.838 72.84-40.228.0-72.838-32.612-72.838-72.84.0-40.227 32.61-72.839 72.838-72.839 40.226.0 72.838 32.612 72.838 72.839z" id="path-6" class="cls-8" fill-rule="evenodd"/><path d="M14.445 147.657c-1.996.0-3.613-1.619-3.613-3.61500000000001.0-34.186 27.809-61.996 61.992-61.996 1.996.0 3.615 1.618 3.615 3.615s-1.619 3.615-3.615 3.615c-30.196.0-54.764 24.568-54.764 54.766C18.06 146.038 16.442 147.657 14.445 147.657z" id="path-7" class="cls-9" fill-rule="evenodd"/><path d="M87.009 72.607c18.758 13.177 31.05 34.937 31.05 59.604.0 40.229-32.61 72.839-72.837 72.839C40.366 205.05 35.629 204.553 31.038 203.646 42.873 211.959 57.263 216.881 72.825 216.881c40.226.0 72.838-32.612 72.838-72.84.0-35.372-25.221-64.832-58.654-71.434z" id="path-8" class="cls-10" fill-rule="evenodd"/></g></svg>

<svg xmlns="http://www.w3.org/2000/svg" xmlns:xlink="http://www.w3.org/1999/xlink" preserveAspectRatio="xMidYMid" width="146" height="218" viewBox="0 0 146 218">
  <defs>
    <style>

      .cls-3 {
        fill: #0cb04a;
      }

      .cls-4 {
        fill: #020403;
        opacity: 0.35;
      }

      .cls-7 {
        fill: #142a3b;
      }

      .cls-8 {
        fill: #fbb713;
      }

      .cls-9 {
        fill: #ffffff;
      }

      .cls-10 {
        fill: #010101;
        opacity: 0.25;
      }
    </style>
  </defs>
  <g id="group-75svg">
    <path d="M43.209,82.834 C54.374,89.071 74.717,73.913 74.717,73.913 C74.717,73.913 76.960,48.641 65.797,42.404 C54.633,36.167 22.586,44.787 22.586,44.787 C22.586,44.787 32.046,76.596 43.209,82.834 Z" id="path-1" class="cls-3" fill-rule="evenodd"/>
    <path d="M65.796,42.404 C60.013,39.174 48.644,39.934 39.011,41.414 C37.730,44.565 36.909,47.559 36.909,50.171 C36.909,65.550 63.340,78.134 65.928,79.329 C71.019,76.656 74.717,73.913 74.717,73.913 C74.717,73.913 76.960,48.641 65.796,42.404 Z" id="path-2" class="cls-4" fill-rule="evenodd"/>
    <path d="M107.291,46.228 C107.291,62.397 78.014,75.504 78.014,75.504 C78.014,75.504 48.738,62.397 48.738,46.228 C48.738,30.059 78.014,0.002 78.014,0.002 C78.014,0.002 107.291,30.059 107.291,46.228 Z" id="path-3" class="cls-3" fill-rule="evenodd"/>
    <path d="M78.014,0.002 C78.014,0.002 76.338,1.729 73.828,4.522 C82.502,14.630 95.460,31.516 95.460,42.284 C95.460,55.635 75.541,66.874 68.583,70.397 C73.805,73.615 78.014,75.504 78.014,75.504 C78.014,75.504 107.291,62.396 107.291,46.228 C107.291,30.059 78.014,0.002 78.014,0.002 Z" id="path-4" class="cls-4" fill-rule="evenodd"/>
    <path d="M78.770,86.311 C78.571,86.311 78.369,86.294 78.164,86.259 C76.197,85.927 74.869,84.063 75.204,82.093 C80.390,51.366 74.575,28.360 74.516,28.131 C74.015,26.199 75.175,24.225 77.108,23.725 C79.035,23.223 81.012,24.385 81.513,26.316 C81.772,27.311 87.773,51.062 82.330,83.296 C82.034,85.061 80.503,86.311 78.770,86.311 Z" id="path-5" class="cls-7" fill-rule="evenodd"/>
    <path d="M145.663,144.041 C145.663,184.269 113.051,216.881 72.825,216.881 C32.597,216.881 -0.013,184.269 -0.013,144.041 C-0.013,103.814 32.597,71.202 72.825,71.202 C113.051,71.202 145.663,103.814 145.663,144.041 Z" id="path-6" class="cls-8" fill-rule="evenodd"/>
    <path d="M14.445,147.657 C12.449,147.657 10.832,146.038 10.832,144.042 C10.832,109.856 38.641,82.046 72.824,82.046 C74.820,82.046 76.439,83.664 76.439,85.661 C76.439,87.658 74.820,89.276 72.824,89.276 C42.628,89.276 18.060,113.844 18.060,144.042 C18.060,146.038 16.442,147.657 14.445,147.657 Z" id="path-7" class="cls-9" fill-rule="evenodd"/>
    <path d="M87.009,72.607 C105.767,85.784 118.059,107.544 118.059,132.211 C118.059,172.440 85.449,205.050 45.222,205.050 C40.366,205.050 35.629,204.553 31.038,203.646 C42.873,211.959 57.263,216.881 72.825,216.881 C113.051,216.881 145.663,184.269 145.663,144.041 C145.663,108.669 120.442,79.209 87.009,72.607 Z" id="path-8" class="cls-10" fill-rule="evenodd"/>
  </g>
</svg>
